images_elementary_svg/cmd/32/zoompage.svg

<svg height="32" width="32" xmlns="http://www.w3.org/2000/svg" xmlns:xlink="http://www.w3.org/1999/xlink"><linearGradient id="a"><stop offset="0"/><stop offset="1" stop-opacity="0"/></linearGradient><radialGradient id="b" cx="605.714" cy="486.648" gradientTransform="matrix(.01687 0 0 .01153 17.734 23.973)" gradientUnits="userSpaceOnUse" r="117.143" xlink:href="#a"/><radialGradient id="c" cx="605.714" cy="486.648" gradientTransform="matrix(-.01687 0 0 .01153 14.266 23.973)" gradientUnits="userSpaceOnUse" r="117.143" xlink:href="#a"/><linearGradient id="d" gradientTransform="matrix(.0493 0 0 .01153 -1.815 23.973)" gradientUnits="userSpaceOnUse" x1="302.857" x2="302.857" y1="366.648" y2="609.505"><stop offset="0" stop-opacity="0"/><stop offset=".5"/><stop offset="1" stop-opacity="0"/></linearGradient><linearGradient id="e" gradientUnits="userSpaceOnUse" x1="22.3534375" x2="22.3534375" y1="1.7051875" y2="27.11725"><stop offset="0" stop-color="#f4f4f4"/><stop offset="1" stop-color="#dbdbdb"/></linearGradient><linearGradient id="f" gradientUnits="userSpaceOnUse" x1="17.6661" x2="17.6661" y1="26.9933" y2="3.6735"><stop offset="0" stop-color="#fff"/><stop offset="1" stop-color="#fff" stop-opacity="0"/></linearGradient><linearGradient id="g" gradientUnits="userSpaceOnUse" x1="16.0002" x2="16.0002" y1="34.3341702" y2="2.6662698"><stop offset="0" stop-color="#fff" stop-opacity=".502"/><stop offset="1" stop-color="#fff" stop-opacity="0"/></linearGradient><linearGradient id="h" gradientUnits="userSpaceOnUse" x1="16" x2="16" xlink:href="#a" y1="23" y2="12.5"/><linearGradient id="i" gradientUnits="userSpaceOnUse" x1="21.06" x2="21.06" y1="6.03" y2="26.07"><stop offset="0" stop-color="#6c6c6c" stop-opacity=".7"/><stop offset="1" stop-color="#c1c1c1"/></linearGradient><path d="m4.1 28.2h23.8v2.8h-23.8z" fill="url(#d)" opacity=".15"/><path d="m4.1 28.2v2.8c-.87.005-2.1-.627-2.1-1.4s.97-1.4 2.1-1.4z" fill="url(#c)" opacity=".15"/><path d="m27.9 28.2v2.8c.87.005 2.1-.627 2.1-1.4s-.97-1.4-2.1-1.4z" fill="url(#b)" opacity=".15"/><rect fill="url(#e)" height="27" rx="4.154" width="27" x="2.5" y="2.5"/><g fill="none"><rect height="27" opacity=".3" rx="4.154" stroke="#000" width="27" x="2.5" y="2.5"/><path d="m23.485 5.475.022 22.04h-15.014l-.023-22.041z" opacity=".6" stroke="url(#f)" stroke-linecap="round" stroke-linejoin="round" stroke-width=".985"/><path d="m23.507 4.492v22.003h-15.014v-22.003z" stroke="url(#i)" stroke-linecap="round" stroke-linejoin="round" stroke-width=".985"/><rect height="25" rx="3.846" stroke="url(#g)" width="25" x="3.5" y="3.5"/></g><path d="m23 14v4h-14v-4z" fill="url(#h)" opacity=".05"/></svg>

<svg xmlns="http://www.w3.org/2000/svg" xmlns:xlink="http://www.w3.org/1999/xlink" width="32" height="32"><defs><linearGradient id="ah"><stop offset="0" stop-color="#6c6c6c" stop-opacity=".7"/><stop offset="1" stop-color="#c1c1c1"/></linearGradient><linearGradient id="ag"><stop offset="0"/><stop offset="1" stop-opacity="0"/></linearGradient><linearGradient id="af"><stop offset="0" stop-color="#fff" stop-opacity=".502"/><stop offset="1" stop-color="#fff" stop-opacity="0"/></linearGradient><linearGradient id="n"><stop offset="0" stop-color="#90dbec"/><stop offset=".333" stop-color="#55c1ec"/><stop offset=".705" stop-color="#3689e6"/><stop offset="1" stop-color="#2b63a0"/></linearGradient><linearGradient id="o"><stop offset="0" stop-color="#fff"/><stop offset=".4" stop-color="#fff" stop-opacity=".235"/><stop offset=".5" stop-color="#fff" stop-opacity=".157"/><stop offset="1" stop-color="#fff" stop-opacity=".392"/></linearGradient><linearGradient id="a"><stop offset="0" stop-color="#fff"/><stop offset=".036" stop-color="#fff" stop-opacity=".235"/><stop offset=".951" stop-color="#fff" stop-opacity=".157"/><stop offset="1" stop-color="#fff" stop-opacity=".392"/></linearGradient><linearGradient id="b"><stop offset="0" stop-color="#f4f4f4"/><stop offset="1" stop-color="#dbdbdb"/></linearGradient><linearGradient id="c"><stop offset="0"/><stop offset="1" stop-opacity="0"/></linearGradient><linearGradient id="d"><stop offset="0" stop-opacity="0"/><stop offset=".5"/><stop offset="1" stop-opacity="0"/></linearGradient><linearGradient id="f"><stop offset="0" stop-color="#fff"/><stop offset=".036" stop-color="#fff" stop-opacity=".235"/><stop offset=".951" stop-color="#fff" stop-opacity=".157"/><stop offset="1" stop-color="#fff" stop-opacity=".392"/></linearGradient><linearGradient id="g"><stop offset="0" stop-color="#a0a0a0"/><stop offset="1" stop-color="#bebebe"/></linearGradient><linearGradient id="h"><stop offset="0" stop-color="#f4f4f4"/><stop offset="1" stop-color="#dbdbdb"/></linearGradient><linearGradient id="i"><stop offset="0"/><stop offset="1" stop-opacity="0"/></linearGradient><linearGradient id="j"><stop offset="0" stop-opacity="0"/><stop offset=".5"/><stop offset="1" stop-opacity="0"/></linearGradient><linearGradient id="k"><stop offset="0"/><stop offset="1" stop-opacity="0"/></linearGradient><linearGradient id="l"><stop offset="0" stop-color="#fff"/><stop offset=".512" stop-color="#fff" stop-opacity=".235"/><stop offset=".585" stop-color="#fff" stop-opacity=".157"/><stop offset="1" stop-color="#fff" stop-opacity=".392"/></linearGradient><linearGradient id="e"><stop offset="0" stop-color="#185f9a"/><stop offset="1" stop-color="#599ec9"/></linearGradient><linearGradient id="m"><stop offset="0" stop-color="#90dbec"/><stop offset=".262" stop-color="#55c1ec"/><stop offset=".705" stop-color="#3689e6"/><stop offset="1" stop-color="#2b63a0"/></linearGradient><linearGradient id="p"><stop offset="0" stop-color="#fff"/><stop offset="1" stop-color="#fff" stop-opacity="0"/></linearGradient><linearGradient id="q"><stop offset="0" stop-opacity="0"/><stop offset=".5"/><stop offset="1" stop-opacity="0"/></linearGradient><linearGradient id="r"><stop offset="0"/><stop offset="1" stop-opacity="0"/></linearGradient><linearGradient id="s"><stop offset="0" stop-color="#f4f4f4"/><stop offset="1" stop-color="#dbdbdb"/></linearGradient><linearGradient id="t"><stop offset="0" stop-color="#fff"/><stop offset=".036" stop-color="#fff" stop-opacity=".235"/><stop offset=".951" stop-color="#fff" stop-opacity=".157"/><stop offset="1" stop-color="#fff" stop-opacity=".392"/></linearGradient><linearGradient id="I"><stop offset="0" stop-color="#90dbec"/><stop offset=".25" stop-color="#55c1ec"/><stop offset=".625" stop-color="#3689e6"/><stop offset="1" stop-color="#2b63a0"/></linearGradient><linearGradient id="K"><stop offset="0" stop-color="#90dbec"/><stop offset=".333" stop-color="#55c1ec"/><stop offset=".705" stop-color="#3689e6"/><stop offset="1" stop-color="#2b63a0"/></linearGradient><linearGradient id="J"><stop offset="0" stop-color="#fff"/><stop offset=".4" stop-color="#fff" stop-opacity=".235"/><stop offset=".5" stop-color="#fff" stop-opacity=".157"/><stop offset="1" stop-color="#fff" stop-opacity=".392"/></linearGradient><linearGradient id="u"><stop offset="0" stop-color="#fff"/><stop offset=".036" stop-color="#fff" stop-opacity=".235"/><stop offset=".951" stop-color="#fff" stop-opacity=".157"/><stop offset="1" stop-color="#fff" stop-opacity=".392"/></linearGradient><linearGradient id="v"><stop offset="0" stop-color="#f4f4f4"/><stop offset="1" stop-color="#dbdbdb"/></linearGradient><linearGradient id="w"><stop offset="0"/><stop offset="1" stop-opacity="0"/></linearGradient><linearGradient id="x"><stop offset="0" stop-opacity="0"/><stop offset=".5"/><stop offset="1" stop-opacity="0"/></linearGradient><linearGradient id="z"><stop offset="0" stop-color="#fff"/><stop offset=".036" stop-color="#fff" stop-opacity=".235"/><stop offset=".951" stop-color="#fff" stop-opacity=".157"/><stop offset="1" stop-color="#fff" stop-opacity=".392"/></linearGradient><linearGradient id="A"><stop offset="0" stop-color="#a0a0a0"/><stop offset="1" stop-color="#bebebe"/></linearGradient><linearGradient id="B"><stop offset="0" stop-color="#f4f4f4"/><stop offset="1" stop-color="#dbdbdb"/></linearGradient><linearGradient id="C"><stop offset="0"/><stop offset="1" stop-opacity="0"/></linearGradient><linearGradient id="D"><stop offset="0" stop-opacity="0"/><stop offset=".5"/><stop offset="1" stop-opacity="0"/></linearGradient><linearGradient id="E"><stop offset="0"/><stop offset="1" stop-opacity="0"/></linearGradient><linearGradient id="F"><stop offset="0" stop-color="#fff"/><stop offset=".512" stop-color="#fff" stop-opacity=".235"/><stop offset=".585" stop-color="#fff" stop-opacity=".157"/><stop offset="1" stop-color="#fff" stop-opacity=".392"/></linearGradient><linearGradient id="y"><stop offset="0" stop-color="#185f9a"/><stop offset="1" stop-color="#599ec9"/></linearGradient><linearGradient id="G"><stop offset="0" stop-color="#90dbec"/><stop offset=".262" stop-color="#55c1ec"/><stop offset=".705" stop-color="#3689e6"/><stop offset="1" stop-color="#2b63a0"/></linearGradient><linearGradient id="H"><stop offset="0" stop-color="#eeeeec"/><stop offset="1" stop-color="#fff"/></linearGradient><linearGradient id="ad"><stop offset="0" stop-color="#90dbec"/><stop offset=".333" stop-color="#55c1ec"/><stop offset=".705" stop-color="#3689e6"/><stop offset="1" stop-color="#2b63a0"/></linearGradient><linearGradient id="ae"><stop offset="0" stop-color="#fff"/><stop offset=".4" stop-color="#fff" stop-opacity=".235"/><stop offset=".5" stop-color="#fff" stop-opacity=".157"/><stop offset="1" stop-color="#fff" stop-opacity=".392"/></linearGradient><linearGradient id="S"><stop offset="0" stop-color="#fff"/><stop offset=".036" stop-color="#fff" stop-opacity=".235"/><stop offset=".951" stop-color="#fff" stop-opacity=".157"/><stop offset="1" stop-color="#fff" stop-opacity=".392"/></linearGradient><linearGradient id="T"><stop offset="0" stop-color="#f4f4f4"/><stop offset="1" stop-color="#dbdbdb"/></linearGradient><linearGradient id="U"><stop offset="0"/><stop offset="1" stop-opacity="0"/></linearGradient><linearGradient id="V"><stop offset="0" stop-opacity="0"/><stop offset=".5"/><stop offset="1" stop-opacity="0"/></linearGradient><linearGradient id="W"><stop offset="0" stop-color="#fff"/><stop offset=".036" stop-color="#fff" stop-opacity=".235"/><stop offset=".951" stop-color="#fff" stop-opacity=".157"/><stop offset="1" stop-color="#fff" stop-opacity=".392"/></linearGradient><linearGradient id="X"><stop offset="0" stop-color="#a0a0a0"/><stop offset="1" stop-color="#bebebe"/></linearGradient><linearGradient id="Y"><stop offset="0" stop-color="#f4f4f4"/><stop offset="1" stop-color="#dbdbdb"/></linearGradient><linearGradient id="Z"><stop offset="0"/><stop offset="1" stop-opacity="0"/></linearGradient><linearGradient id="aa"><stop offset="0" stop-opacity="0"/><stop offset=".5"/><stop offset="1" stop-opacity="0"/></linearGradient><linearGradient id="ab"><stop offset="0"/><stop offset="1" stop-opacity="0"/></linearGradient><linearGradient id="ac"><stop offset="0" stop-color="#fff"/><stop offset=".512" stop-color="#fff" stop-opacity=".235"/><stop offset=".585" stop-color="#fff" stop-opacity=".157"/><stop offset="1" stop-color="#fff" stop-opacity=".392"/></linearGradient><linearGradient id="L"><stop offset="0" stop-color="#185f9a"/><stop offset="1" stop-color="#599ec9"/></linearGradient><linearGradient id="M"><stop offset="0" stop-color="#90dbec"/><stop offset=".262" stop-color="#55c1ec"/><stop offset=".705" stop-color="#3689e6"/><stop offset="1" stop-color="#2b63a0"/></linearGradient><linearGradient id="N"><stop offset="0" stop-opacity="0"/><stop offset=".5"/><stop offset="1" stop-opacity="0"/></linearGradient><linearGradient id="O"><stop offset="0"/><stop offset="1" stop-opacity="0"/></linearGradient><linearGradient id="P"><stop offset="0" stop-color="#f4f4f4"/><stop offset="1" stop-color="#dbdbdb"/></linearGradient><linearGradient id="Q"><stop offset="0" stop-color="#fff"/><stop offset=".015" stop-color="#fff" stop-opacity=".235"/><stop offset=".985" stop-color="#fff" stop-opacity=".157"/><stop offset="1" stop-color="#fff" stop-opacity=".392"/></linearGradient><linearGradient id="R"><stop offset="0" stop-color="#fff"/><stop offset="1" stop-color="#fff" stop-opacity="0"/></linearGradient><radialGradient xlink:href="#c" id="ak" gradientUnits="userSpaceOnUse" gradientTransform="matrix(.01687 0 0 .01153 17.734 23.973)" cx="605.714" cy="486.648" fx="605.714" fy="486.648" r="117.143"/><radialGradient xlink:href="#c" id="aj" gradientUnits="userSpaceOnUse" gradientTransform="matrix(-.01687 0 0 .01153 14.266 23.973)" cx="605.714" cy="486.648" fx="605.714" fy="486.648" r="117.143"/><linearGradient xlink:href="#d" id="ai" gradientUnits="userSpaceOnUse" gradientTransform="matrix(.0493 0 0 .01153 -1.815 23.973)" x1="302.857" y1="366.648" x2="302.857" y2="609.505"/><linearGradient xlink:href="#P" id="al" x1="15.765" y1="3.529" x2="15.765" y2="18.588" gradientUnits="userSpaceOnUse" gradientTransform="translate(-4.25 -4.25) scale(1.6875)"/><linearGradient xlink:href="#R" id="am" x1="13" y1="19" x2="13" y2="5" gradientUnits="userSpaceOnUse" gradientTransform="matrix(1.6657 0 0 1.6657 -3.988 -4.655)"/><linearGradient xlink:href="#af" id="ao" x1="12" y1="24.467" x2="12" y2="2.933" gradientUnits="userSpaceOnUse" gradientTransform="matrix(1.4706 0 0 1.4706 -1.647 -1.647)"/><linearGradient xlink:href="#ag" id="ap" x1="12" y1="16" x2="12" y2="10" gradientUnits="userSpaceOnUse" gradientTransform="matrix(1.75 0 0 1.75 -5 -5)"/><linearGradient xlink:href="#ah" id="an" x1="15" y1="6" x2="15" y2="18" gradientUnits="userSpaceOnUse" gradientTransform="matrix(1.67 0 0 1.67 -3.99 -3.99)"/></defs><path opacity=".15" fill="url(#ai)" overflow="visible" d="M4.1 28.2h23.8V31H4.1z"/><path d="M4.1 28.2V31c-.87.005-2.1-.627-2.1-1.4 0-.773.97-1.4 2.1-1.4z" opacity=".15" fill="url(#aj)" overflow="visible"/><path d="M27.9 28.2V31c.87.005 2.1-.627 2.1-1.4 0-.773-.97-1.4-2.1-1.4z" opacity=".15" fill="url(#ak)" overflow="visible"/><rect y="2.5" x="2.5" ry="4.154" rx="4.154" height="27" width="27" fill="url(#al)"/><rect width="27" height="27" rx="4.154" ry="4.154" x="2.5" y="2.5" opacity=".3" fill="none" stroke="#000"/><path d="M23.485 5.475l.022 22.04H8.493L8.47 5.474z" color="#000" overflow="visible" opacity=".6" fill="none" stroke="url(#am)" stroke-width=".985" stroke-linecap="round" stroke-linejoin="round"/><path d="M23.507 4.492v22.003H8.493V4.492z" color="#000" overflow="visible" fill="none" stroke="url(#an)" stroke-width=".985" stroke-linecap="round" stroke-linejoin="round"/><rect width="25" height="25" rx="3.846" ry="3.846" x="3.5" y="3.5" fill="none" stroke="url(#ao)"/><path d="M23 14v4H9v-4z" opacity=".05" fill="url(#ap)"/></svg>
